X: 101
T: Wooden Ended Reel
C:trad
N:"said by John Tams to be a Leadbelly tune"
N:which I got from Alan Wood (melodeon, hammered dulcimer etc; Baston, Lincs)
N:who got it from Steve Taggart (concertina; Stamford, Lincs)
Z:abc by Si Garbutt
S:Si Garbutt  tradtunes 2002-6-23
M:4/4
L:1/8
K:G
DEGA G2 D2 | G2 cd c2 G2 | DEFG A2 B2 | .d2 d6 |
DEGA G2 D2 | G2 cd c2 G2 | DEFG A2 B2 | .d2 G6 :|
.g2 .g2 e2 fg | e2 e2 d4 | B2 BB A2 G2 | e2 d2 B4 |
.g2 .g2 ef g2 | e2 e2 d4 | DEFG A2 B2 | .d2 G6 :|
%%sep 2 1 500
